X: 1488
T: Gervasoni Waltz No 6
B: australian traditional tunes wiki
M:3/4
L:1/8
R: Waltz
Q: 1/4=100
K:G
V:1 
Bc|:"G"d2B2d2|e4d2|B2G4-|G4Bc|d2B2d2|e2B2d2|"D"c6-|c4AB|1
"D"c2B2c2|d4c2|A2F4-|F4d2|f4(3efe|d4c2|"G"B6-|B4GB:|2
"D"c2B2c2|d4c2|A2F4-|F4d2|f3ed2|c2B2A2|"G"G6-|G4d2||
"C"e2ee ee|e2f2e2|"G"d2B3B|d2e2d2|"D"c2A3B|c2B2c2|"G"d6-|d3Bcd|
"C"e2ee ee|e2f3e|"G"d2B3c|d2e2d2|"D"f2e2d2|c2B2A2|"G"G6-|G4z2||
% abcbook-tune_id 6342d53a8e3d948afda51055


% abcbook-boost 0
% abcbook-tablature 
% abcbook-transpose 
% abcbook-lastupdated 1665324367564
% abcbook-soundfonts 
% abcbook-repeats 1
% NFF Book 2007

